invoice-text-outline.svg

<svg  viewBox="0 0 24 24" fill="currentColor"><path  d="M17 7V9H7V7H17M15 11V13H7V11H15M18 20L21 22V3H3V22L6 20L9 22L12 20L15 22L18 20M19 5V18.26L18 17.6L15 19.6L12 17.6L9 19.6L6 17.6L5 18.26V5H19Z"/></svg>

<svg fill="currentColor" viewBox="0 0 24 24"><path d="M17 7v2H7V7zm-2 4v2H7v-2zm3 9 3 2V3H3v19l3-2 3 2 3-2 3 2zm1-15v13.26l-1-.66-3 2-3-2-3 2-3-2-1 .66V5z"/></svg>
